X:1
T:Title
%%score { ( 1 4 ) | ( 2 3 ) }
L:1/8
Q:1/4=100
M:6/8
K:Ab
V:1 treble nm="Grand Piano"
V:4 treble 
V:2 bass 
V:3 bass 
V:1
 e>ee e[Ac][DEB] | [CEA]2 [B,GB] .[Ac]3 | [Gd]>[Gd][Gd] [GB][Ac][Bd] | [ce]2 [Bd] .[Ac]3 | %4
w: J.~G.~Dailey * * * * *||||
 [Ec]>[Ec][Ec] [Ec][EB][EA] | [EA][EB][Ec] .[Fd]3 | [Ae]>[Ae][Ae] [DGB][CAc][Gd] | %7
w: |||
[M:4/4] [EAc]3 [DEB] [CEA]4 |[M:3/4] [CE]4 z2 | [FA]4 z2 | [CE]4 z2 | [CA]4[K:bass] z2 | %12
w: |||||
 G,G, G,G,[K:treble] dc | B4 z2 | [=DF]4 z2 | [EB]4[K:bass] z2 | [Ac]4 z2 | [=Ec]4 z2 | [FA]4 z2 | %19
w: |||||||
 [=Ec]4[K:bass] z2 | [Gd]4 z2 | [Ae]4 z2 | c3 .c3 | [CA]6 |] %24
w: |||||
V:2
 A>A[A,,CA] [A,,CA][A,,A,]B,, | C,2 D, .A,3 | [E,B,]2 [E,B,] [E,D][E,C][E,B,] | %3
 [E,A,]2 [E,G,] .[A,,A,]3 | [A,,A,]>[A,,A,][A,,A,] [A,,A,][B,,G,][C,A,] | %5
 [C,A,][B,,G,][A,,A,] .[D,A,]3 | [C,A,]2 [C,A,] E,E,[E,B,] |[M:4/4] E,3 E, A,,4 | %8
[M:3/4] A,,A,, A,,A,, E=E | D,D, D,D, ED | E,E, E,E, [E,G,D][E,B,D] | [A,,A,]A,, A,,A,, z2 | %12
 E,E, E,E,[K:treble] FE | E-[E,E-] [E,E-][E,E][K:treble] FE | B,,B,, B,,B,, [B,,B,][B,,B,] | %15
 [E,G,]E, E,E, z2 | [F,A,]F, F,F, [F,A,G]F | [C,G,]C, C,C, .[C,G,]2 | [D,F,]D, D,D, D,B,, | %19
 [C,G,]C, C,C, z2 | [B,,B,]B,, B,,B,, [B,,B,]G | A,,A,, A,,A,, [A,,A,]C | %22
 E-[E,E-] [E,E]E- [E,E][E,G,D] | [A,,A,]A,, A,, .A,,3 |] %24
V:3
 .[A,,C]3 z3 | x6 | x6 | x6 | x6 | x6 | x6 |[M:4/4] x8 |[M:3/4] x6 | x6 | x6 | x6 | %12
 x4[K:treble] x2 | .[E,G,]2 z2[K:treble] z2 | x6 | x6 | x6 | x6 | x6 | x6 | x6 | x6 | %22
 .[E,A,]2 z [E,A,] z2 | x6 |] %24
V:4
 x6 | x6 | x6 | x6 | x6 | x6 | x6 |[M:4/4] x8 |[M:3/4] A,A, A,A, cB | A,A, A,A, GF | A,A, A,G, FG | %11
 z[K:bass] A, A,A, z2 | [B,E]4[K:treble] z2 | z G, G,G, AG | B,B, B,B, [=DG][DA] | %15
 z[K:bass] G, G,G, E,=E, | z A, A,A, BA | z G, G,G, [GB][FA] | z A, A,A, [A,=EG][A,F] | %19
 z[K:bass] G, G,G, C,_C, | z B, B,B, [Ac]B | CC CC [Ec]A | z A, .A,2 A,B | z A, A, .A,3 |] %24

